Simply-Red-Circles/scalable/apps/org.kde.plasma.fuzzyclock.svg

<svg xmlns="http://www.w3.org/2000/svg" width="48" height="48" viewBox="0 0 12.7 12.7"><path d="M6.34.07a6.29 6.29 0 0 0-6.29 6.3 6.29 6.29 0 0 0 6.3 6.28 6.29 6.29 0 0 0 6.28-6.29A6.29 6.29 0 0 0 6.34.07zM6.32 1l.01.01a5.4 5.4 0 0 1 5.4 5.4 5.4 5.4 0 0 1-5.4 5.41 5.4 5.4 0 0 1-5.41-5.4A5.4 5.4 0 0 1 6.32 1zM2.36 3.54v2.031h.25v-.93h.823v-.178H2.61v-.735h.884l.014-.187H2.361zm1.596 0a.152.152 0 0 0-.11.042.14.14 0 0 0-.042.106c0 .044.014.08.042.107a.152.152 0 0 0 .11.042.15.15 0 0 0 .108-.042.142.142 0 0 0 .043-.107.138.138 0 0 0-.043-.106.147.147 0 0 0-.108-.041zm4.488.156l-.185.014-.038.39-.227.015-.005.13h.227v.885c0 .09.008.163.023.219a.283.283 0 0 0 .085.137.352.352 0 0 0 .161.075 1.3 1.3 0 0 0 .26.021h.095l.011-.158-.117-.006c-.123-.004-.202-.024-.237-.058-.036-.035-.053-.112-.053-.23v-.884h.39V4.1h-.39v-.404zM6.59 4.07a.62.62 0 0 0-.48.21c-.127.14-.19.328-.19.564 0 .232.064.417.193.553a.663.663 0 0 0 .504.203.956.956 0 0 0 .496-.129l-.048-.163a1.41 1.41 0 0 1-.212.088.712.712 0 0 1-.21.029.46.46 0 0 1-.345-.135c-.088-.09-.135-.23-.143-.417h.994l.009-.117c0-.215-.05-.383-.147-.504-.096-.121-.236-.182-.42-.182zm3.166 0c-.217 0-.386.07-.51.211-.122.14-.183.326-.183.557 0 .225.062.409.187.55a.64.64 0 0 0 .506.212.643.643 0 0 0 .503-.213.796.796 0 0 0 .19-.55c0-.23-.06-.416-.183-.556-.122-.14-.293-.211-.51-.211zM3.84 4.1v1.471h.227V4.1h-.227zm.533 0l.57 1.471h.231L5.733 4.1h-.235a160.192 160.192 0 0 0-.438 1.215A96.445 96.445 0 0 1 4.611 4.1h-.237zm2.223.146c.234 0 .356.159.367.476h-.801a.575.575 0 0 1 .136-.348.388.388 0 0 1 .298-.128zm3.16 0c.15 0 .265.054.342.163a.726.726 0 0 1 .115.43.879.879 0 0 1-.047.302.439.439 0 0 1-.153.206.423.423 0 0 1-.257.077.394.394 0 0 1-.34-.162.706.706 0 0 1-.117-.424c0-.178.04-.322.117-.43a.392.392 0 0 1 .34-.162zM4.06 7.084l-.228.017v1.61c0 .087.01.16.03.219.021.057.053.101.095.132.043.03.091.052.145.064.055.011.123.017.203.017h.11l.012-.16-.062-.003c-.04-.002-.071-.005-.093-.007a1.087 1.087 0 0 1-.073-.01.205.205 0 0 1-.057-.02.338.338 0 0 1-.037-.03.1.1 0 0 1-.028-.047.73.73 0 0 1-.013-.064.779.779 0 0 1-.004-.087v-1.63zm-1.14.546a.619.619 0 0 0-.481.21c-.126.14-.19.327-.19.563 0 .232.065.417.194.553a.663.663 0 0 0 .503.203.956.956 0 0 0 .497-.13l-.049-.162a1.415 1.415 0 0 1-.211.088.713.713 0 0 1-.21.029.46.46 0 0 1-.345-.135c-.088-.09-.136-.23-.143-.417h.994l.008-.117c0-.215-.048-.383-.146-.504-.096-.121-.237-.181-.421-.181zm2.37 0a.619.619 0 0 0-.482.21c-.126.14-.189.327-.189.563 0 .232.065.417.194.553a.663.663 0 0 0 .503.203.956.956 0 0 0 .497-.13l-.049-.162a1.415 1.415 0 0 1-.211.088.713.713 0 0 1-.21.029.46.46 0 0 1-.345-.135c-.088-.09-.136-.23-.144-.417h.995l.008-.117c0-.215-.049-.383-.146-.504-.097-.121-.237-.181-.421-.181zm2.987 0a.619.619 0 0 0-.481.21c-.126.14-.19.327-.19.563 0 .232.065.417.194.553a.663.663 0 0 0 .503.203.956.956 0 0 0 .497-.13l-.05-.162a1.415 1.415 0 0 1-.21.088.71.71 0 0 1-.21.029.46.46 0 0 1-.345-.135c-.088-.09-.136-.23-.144-.417h.995l.008-.117c0-.215-.048-.383-.146-.504-.096-.121-.236-.181-.421-.181zm1.606 0c-.221 0-.388.077-.5.233L9.36 7.66h-.2v1.472h.23v-.82c0-.337.152-.506.454-.506.112 0 .19.034.235.102a.544.544 0 0 1 .067.299v.925h.23v-.9c0-.203-.04-.353-.12-.452-.08-.1-.204-.15-.372-.15zm-3.823.03l.57 1.472h.231L7.42 7.66h-.235a159.097 159.097 0 0 0-.438 1.215 96.527 96.527 0 0 1-.45-1.215H6.06zm-3.135.146c.234 0 .356.159.367.476h-.8a.575.575 0 0 1 .136-.348.388.388 0 0 1 .297-.128zm2.37 0c.234 0 .356.159.367.476h-.8a.575.575 0 0 1 .136-.348.388.388 0 0 1 .297-.128zm2.988 0c.233 0 .355.159.367.476h-.801a.575.575 0 0 1 .136-.348.388.388 0 0 1 .298-.128z" fill="#a02c2c"/></svg>

<?xml version="1.0" encoding="UTF-8" standalone="no"?>
<svg
   xmlns:dc="http://purl.org/dc/elements/1.1/"
   xmlns:cc="http://creativecommons.org/ns#"
   xmlns:rdf="http://www.w3.org/1999/02/22-rdf-syntax-ns#"
   xmlns:svg="http://www.w3.org/2000/svg"
   xmlns="http://www.w3.org/2000/svg"
   xmlns:sodipodi="http://sodipodi.sourceforge.net/DTD/sodipodi-0.dtd"
   xmlns:inkscape="http://www.inkscape.org/namespaces/inkscape"
   width="48"
   height="48"
   viewBox="0 0 12.7 12.7"
   version="1.1"
   id="svg4"
   sodipodi:docname="org.kde.plasma.fuzzyclock.svg"
   inkscape:version="0.92.4 (5da689c313, 2019-01-14)">
  <metadata
     id="metadata10">
    <rdf:RDF>
      <cc:Work
         rdf:about="">
        <dc:format>image/svg+xml</dc:format>
        <dc:type
           rdf:resource="http://purl.org/dc/dcmitype/StillImage" />
        <dc:title></dc:title>
      </cc:Work>
    </rdf:RDF>
  </metadata>
  <defs
     id="defs8" />
  <sodipodi:namedview
     pagecolor="#ffffff"
     bordercolor="#666666"
     borderopacity="1"
     objecttolerance="10"
     gridtolerance="10"
     guidetolerance="10"
     inkscape:pageopacity="0"
     inkscape:pageshadow="2"
     inkscape:window-width="1087"
     inkscape:window-height="480"
     id="namedview6"
     showgrid="false"
     inkscape:zoom="4.9166667"
     inkscape:cx="2.1355932"
     inkscape:cy="24"
     inkscape:window-x="0"
     inkscape:window-y="25"
     inkscape:window-maximized="0"
     inkscape:current-layer="svg4" />
  <path
     d="M 6.34,0.07 A 6.29,6.29 0 0 0 0.05,6.37 6.29,6.29 0 0 0 6.35,12.65 6.29,6.29 0 0 0 12.63,6.36 6.29,6.29 0 0 0 6.34,0.07 Z M 6.32,1 6.33,1.01 a 5.4,5.4 0 0 1 5.4,5.4 5.4,5.4 0 0 1 -5.4,5.41 A 5.4,5.4 0 0 1 0.92,6.42 5.4,5.4 0 0 1 6.32,1 Z M 2.36,3.54 V 5.571 H 2.61 V 4.641 H 3.433 V 4.463 H 2.61 V 3.728 H 3.494 L 3.508,3.541 H 2.361 Z m 1.596,0 A 0.152,0.152 0 0 0 3.846,3.582 0.14,0.14 0 0 0 3.804,3.688 c 0,0.044 0.014,0.08 0.042,0.107 A 0.152,0.152 0 0 0 3.956,3.837 0.15,0.15 0 0 0 4.064,3.795 0.142,0.142 0 0 0 4.107,3.688 0.138,0.138 0 0 0 4.064,3.582 0.147,0.147 0 0 0 3.956,3.541 Z M 8.444,3.696 8.259,3.71 8.221,4.1 7.994,4.115 7.989,4.245 H 8.216 V 5.13 c 0,0.09 0.008,0.163 0.023,0.219 a 0.283,0.283 0 0 0 0.085,0.137 0.352,0.352 0 0 0 0.161,0.075 1.3,1.3 0 0 0 0.26,0.021 H 8.84 L 8.851,5.424 8.734,5.418 C 8.611,5.414 8.532,5.394 8.497,5.36 8.461,5.325 8.444,5.248 8.444,5.13 V 4.246 h 0.39 V 4.1 H 8.444 Z M 6.59,4.07 A 0.62,0.62 0 0 0 6.11,4.28 C 5.983,4.42 5.92,4.608 5.92,4.844 c 0,0.232 0.064,0.417 0.193,0.553 A 0.663,0.663 0 0 0 6.617,5.6 0.956,0.956 0 0 0 7.113,5.471 L 7.065,5.308 A 1.41,1.41 0 0 1 6.853,5.396 0.712,0.712 0 0 1 6.643,5.425 0.46,0.46 0 0 1 6.298,5.29 C 6.21,5.2 6.163,5.06 6.155,4.873 H 7.149 L 7.158,4.756 C 7.158,4.541 7.108,4.373 7.011,4.252 6.915,4.131 6.775,4.07 6.591,4.07 Z m 3.166,0 c -0.217,0 -0.386,0.07 -0.51,0.211 -0.122,0.14 -0.183,0.326 -0.183,0.557 0,0.225 0.062,0.409 0.187,0.55 a 0.64,0.64 0 0 0 0.506,0.212 0.643,0.643 0 0 0 0.503,-0.213 0.796,0.796 0 0 0 0.19,-0.55 c 0,-0.23 -0.06,-0.416 -0.183,-0.556 C 10.144,4.141 9.973,4.07 9.756,4.07 Z M 3.84,4.1 V 5.571 H 4.067 V 4.1 Z m 0.533,0 0.57,1.471 H 5.174 L 5.733,4.1 H 5.498 A 160.192,160.192 0 0 0 5.06,5.315 96.445,96.445 0 0 1 4.611,4.1 H 4.374 Z m 2.223,0.146 c 0.234,0 0.356,0.159 0.367,0.476 H 6.162 A 0.575,0.575 0 0 1 6.298,4.374 0.388,0.388 0 0 1 6.596,4.246 Z m 3.16,0 c 0.15,0 0.265,0.054 0.342,0.163 A 0.726,0.726 0 0 1 10.213,4.839 0.879,0.879 0 0 1 10.166,5.141 0.439,0.439 0 0 1 10.013,5.347 0.423,0.423 0 0 1 9.756,5.424 0.394,0.394 0 0 1 9.416,5.262 0.706,0.706 0 0 1 9.299,4.838 c 0,-0.178 0.04,-0.322 0.117,-0.43 A 0.392,0.392 0 0 1 9.756,4.246 Z M 4.06,7.084 3.832,7.101 v 1.61 c 0,0.087 0.01,0.16 0.03,0.219 C 3.883,8.987 3.915,9.031 3.957,9.062 4,9.092 4.048,9.114 4.102,9.126 4.157,9.137 4.225,9.143 4.305,9.143 h 0.11 L 4.427,8.983 4.365,8.98 C 4.325,8.978 4.294,8.975 4.272,8.973 A 1.087,1.087 0 0 1 4.199,8.963 0.205,0.205 0 0 1 4.142,8.943 0.338,0.338 0 0 1 4.105,8.913 0.1,0.1 0 0 1 4.077,8.866 0.73,0.73 0 0 1 4.064,8.802 0.779,0.779 0 0 1 4.06,8.715 V 7.085 Z M 2.92,7.63 A 0.619,0.619 0 0 0 2.439,7.84 c -0.126,0.14 -0.19,0.327 -0.19,0.563 0,0.232 0.065,0.417 0.194,0.553 A 0.663,0.663 0 0 0 2.946,9.159 0.956,0.956 0 0 0 3.443,9.029 L 3.394,8.867 A 1.415,1.415 0 0 1 3.183,8.955 0.713,0.713 0 0 1 2.973,8.984 0.46,0.46 0 0 1 2.628,8.849 C 2.54,8.759 2.492,8.619 2.485,8.432 H 3.479 L 3.487,8.315 C 3.487,8.1 3.439,7.932 3.341,7.811 3.245,7.69 3.104,7.63 2.92,7.63 Z m 2.37,0 A 0.619,0.619 0 0 0 4.808,7.84 C 4.682,7.98 4.619,8.167 4.619,8.403 c 0,0.232 0.065,0.417 0.194,0.553 A 0.663,0.663 0 0 0 5.316,9.159 0.956,0.956 0 0 0 5.813,9.029 L 5.764,8.867 A 1.415,1.415 0 0 1 5.553,8.955 0.713,0.713 0 0 1 5.343,8.984 0.46,0.46 0 0 1 4.998,8.849 C 4.91,8.759 4.862,8.619 4.854,8.432 H 5.849 L 5.857,8.315 C 5.857,8.1 5.808,7.932 5.711,7.811 5.614,7.69 5.474,7.63 5.29,7.63 Z m 2.987,0 A 0.619,0.619 0 0 0 7.796,7.84 C 7.67,7.98 7.606,8.167 7.606,8.403 7.606,8.635 7.671,8.82 7.8,8.956 A 0.663,0.663 0 0 0 8.303,9.159 0.956,0.956 0 0 0 8.8,9.029 L 8.75,8.867 A 1.415,1.415 0 0 1 8.54,8.955 0.71,0.71 0 0 1 8.33,8.984 0.46,0.46 0 0 1 7.985,8.849 C 7.897,8.759 7.849,8.619 7.841,8.432 H 8.836 L 8.844,8.315 C 8.844,8.1 8.796,7.932 8.698,7.811 8.602,7.69 8.462,7.63 8.277,7.63 Z m 1.606,0 c -0.221,0 -0.388,0.077 -0.5,0.233 L 9.36,7.66 h -0.2 v 1.472 h 0.23 v -0.82 c 0,-0.337 0.152,-0.506 0.454,-0.506 0.112,0 0.19,0.034 0.235,0.102 a 0.544,0.544 0 0 1 0.067,0.299 v 0.925 h 0.23 v -0.9 c 0,-0.203 -0.04,-0.353 -0.12,-0.452 C 10.176,7.68 10.052,7.63 9.884,7.63 Z M 6.06,7.66 6.63,9.132 H 6.861 L 7.42,7.66 H 7.185 A 159.097,159.097 0 0 0 6.747,8.875 96.527,96.527 0 0 1 6.297,7.66 Z M 2.925,7.806 c 0.234,0 0.356,0.159 0.367,0.476 h -0.8 A 0.575,0.575 0 0 1 2.628,7.934 0.388,0.388 0 0 1 2.925,7.806 Z m 2.37,0 c 0.234,0 0.356,0.159 0.367,0.476 h -0.8 A 0.575,0.575 0 0 1 4.998,7.934 0.388,0.388 0 0 1 5.295,7.806 Z m 2.988,0 c 0.233,0 0.355,0.159 0.367,0.476 H 7.849 A 0.575,0.575 0 0 1 7.985,7.934 0.388,0.388 0 0 1 8.283,7.806 Z"
     id="path2"
     inkscape:connector-curvature="0"
     style="fill:#a02c2c" />
</svg>
